logos/hosted-graphite.svg

<?xml version="1.0" encoding="UTF-8" standalone="no"?>
<svg width="256px" height="294px" viewBox="0 0 256 294" version="1.1" xmlns="http://www.w3.org/2000/svg" xmlns:xlink="http://www.w3.org/1999/xlink" preserveAspectRatio="xMidYMid">
    <g>
        <path d="M256,72.1533204 L256,220.210948 L126.450785,293.538869 L0,220.210948 L0,72.1533204 L126.450785,0 C126.450785,0 151.05455,14.5205718 163.124413,20.7029324 C194.374578,36.7219653 256,72.1533204 256,72.1533204 L256,72.1533204 L256,72.1533204 Z M151.586262,63.6024246 L151.586262,127.4127 L102.378732,127.4127 L102.378732,63.6024246 L45.1326826,97.4628124 L45.1326826,197.076642 L102.378732,232.546666 L102.378732,190.551085 L62.9837051,166.445196 L151.586262,166.445196 L151.586262,232.546666 C151.586262,232.546666 190.154718,207.314515 206.903647,197.076642 L206.903647,97.4628124 L151.586262,63.6024246 L151.586262,63.6024246 Z" fill="#EC7A51"></path>
    </g>
</svg>

<svg width="256" height="294" xmlns="http://www.w3.org/2000/svg" preserveAspectRatio="xMidYMid">
	<path d="M256 72.153v148.058l-129.55 73.328L0 220.21V72.153L126.45 0s24.605 14.52 36.674 20.703C194.374 36.722 256 72.153 256 72.153Zm-104.414-8.55v63.81H102.38v-63.81l-57.246 33.86v99.614l57.246 35.47V190.55l-39.395-24.106h88.602v66.102s38.569-25.232 55.318-35.47V97.463l-55.318-33.86Z" fill="#EC7A51"/>
</svg>
